usr/share/icons/biglinux-icons-material/24/actions/paint-order-fsm.svg

<svg width="24" height="24" version="1.1" xmlns="http://www.w3.org/2000/svg">
 <defs>
  <style id="current-color-scheme" type="text/css">.ColorScheme-Text { color:#dedede; }</style>
 </defs>
 <path class="ColorScheme-Text" d="m19.5 10c0 5.2467-4.2533 9.5-9.5 9.5s-9.5-4.2533-9.5-9.5 4.2533-9.5 9.5-9.5 9.5 4.2533 9.5 9.5z" fill="currentColor" opacity=".15"/>
 <path d="m18.066 15c-0.77104 1.2412-1.8282 2.279-3.0664 3.0527v5.9473h9v-9h-5.9336z" style="fill:currentColor" class="ColorScheme-Text"  opacity=".5"/>
 <path d="m18.367 5.5c0.72222 1.3397 1.1328 2.8713 1.1328 4.5 0 1.6287-0.41059 3.1603-1.1328 4.5h5.6328v-9h-5.6328zm-12.867 12.867v5.6328h9v-5.6328c-1.3397 0.72222-2.8713 1.1328-4.5 1.1328-1.6287 0-3.1603-0.41059-4.5-1.1328z" style="fill:currentColor" class="ColorScheme-Text" opacity=".35"/>
 <path d="m18.066 5c0.1994 0.32101 0.38033 0.65497 0.54102 1h5.3926v-1h-5.9336zm0.54102 9c-0.16068 0.34503-0.34161 0.67899-0.54102 1h5.9336v-1h-5.3926zm-13.607 4.0664v5.9336h1v-5.3926c-0.34503-0.16068-0.67899-0.34161-1-0.54102zm10 0c-0.32101 0.1994-0.65497 0.38033-1 0.54102v5.3926h1v-5.9336z" style="fill:currentColor" class="ColorScheme-Text"/>
 <rect x="9" y="21" width="2" height="2" style="fill:currentColor" class="ColorScheme-Text" />
 <rect x="21" y="9" width="2" height="2" style="fill:currentColor" class="ColorScheme-Text" />
 <path class="ColorScheme-Text" d="m10 0c-5.5169 0-10 4.4831-10 10s4.4831 10 10 10 10-4.4831 10-10-4.4831-10-10-10zm0 1c4.9765 0 9 4.0235 9 9s-4.0235 9-9 9-9-4.0235-9-9 4.0235-9 9-9z" fill="currentColor"/>
</svg>

<svg xmlns="http://www.w3.org/2000/svg" width="24" height="24"><defs><style id="current-color-scheme" type="text/css">.ColorScheme-Text{color:#dedede}</style></defs><path fill="currentColor" d="M19.5 10a9.5 9.5 0 1 1-19 0 9.5 9.5 0 0 1 19 0z" class="ColorScheme-Text" opacity=".15"/><path d="M18.066 15A9.566 9.566 0 0 1 15 18.053V24h9v-9h-5.934z" class="ColorScheme-Text" opacity=".5" style="fill:currentColor"/><path d="M18.367 5.5A9.453 9.453 0 0 1 19.5 10c0 1.629-.41 3.16-1.133 4.5H24v-9h-5.633zM5.5 18.367V24h9v-5.633A9.453 9.453 0 0 1 10 19.5c-1.629 0-3.16-.41-4.5-1.133z" class="ColorScheme-Text" opacity=".35" style="fill:currentColor"/><path d="M18.066 5c.2.321.38.655.541 1H24V5h-5.934zm.541 9a9.48 9.48 0 0 1-.541 1H24v-1h-5.393zM5 18.066V24h1v-5.393a9.48 9.48 0 0 1-1-.54zm10 0c-.321.2-.655.38-1 .541V24h1v-5.934zM9 21h2v2H9zM21 9h2v2h-2z" class="ColorScheme-Text" style="fill:currentColor"/><path fill="currentColor" d="M10 0C4.483 0 0 4.483 0 10s4.483 10 10 10 10-4.483 10-10S15.517 0 10 0zm0 1c4.976 0 9 4.024 9 9s-4.024 9-9 9-9-4.024-9-9 4.024-9 9-9z" class="ColorScheme-Text"/></svg>
